app/images/icon/phone-white.svg

<svg width="15" height="15" viewBox="0 0 15 15" fill="none" xmlns="http://www.w3.org/2000/svg">
<path d="M13.3715 9.55872C12.476 9.55872 11.5988 9.41889 10.7675 9.14457C10.3618 9.00474 9.90102 9.11248 9.63436 9.38451L7.98623 10.6292C6.09512 9.61986 4.8848 8.4103 3.88921 6.53294L5.10028 4.92377C5.40515 4.6189 5.51442 4.17266 5.38376 3.75472C5.10715 2.91805 4.96657 2.04011 4.96657 1.14613C4.96657 0.514218 4.45235 0 3.82044 0L1.14613 0C0.514218 0 0 0.514218 0 1.14613C0 8.51878 5.99884 14.5176 13.3715 14.5176C14.0034 14.5176 14.5176 14.0034 14.5176 13.3715V10.7048C14.5176 10.0729 14.0034 9.55872 13.3715 9.55872Z" fill="white"/>
</svg>

<svg width="15" height="15" fill="none" xmlns="http://www.w3.org/2000/svg">
    <path d="M13.371 9.559a8.3 8.3 0 0 1-2.604-.414c-.405-.14-.866-.033-1.133.24l-1.648 1.244C6.096 9.62 4.885 8.41 3.89 6.533L5.1 4.923c.305-.304.414-.75.284-1.168a8.296 8.296 0 0 1-.417-2.609C4.967.514 4.452 0 3.82 0H1.146C.514 0 0 .514 0 1.146 0 8.52 5.999 14.518 13.371 14.518c.632 0 1.147-.515 1.147-1.147v-2.666c0-.632-.515-1.146-1.147-1.146Z" fill="#fff"/>
</svg>
